src/assets/images/about/c-logo-1.svg

<svg width="84" height="94" viewBox="0 0 84 94" fill="none" xmlns="http://www.w3.org/2000/svg">
<g id="Group 630598">
<path id="Vector" d="M74.1318 35.4342C73.656 35.8782 72.9114 35.8449 72.4811 35.3572C70.9101 33.5764 68.3962 30.9379 66.9541 29.4958C65.5121 28.0538 62.873 25.5393 61.0927 23.9689C60.6048 23.5382 60.5718 22.794 61.0155 22.3179L69.009 13.7508C69.4316 13.2977 70.136 13.2547 70.6043 13.6602C72.6047 15.3903 75.251 17.8945 76.9029 19.5465C78.5549 21.1984 81.0588 23.8443 82.7892 25.845C83.1943 26.3137 83.1517 27.0178 82.6986 27.4403L74.1315 35.4338L74.1318 35.4342Z" fill="#043D2F"/>
<path id="Vector_2" d="M74.1318 58.0844C73.656 57.6404 72.9114 57.6737 72.4811 58.1613C70.9101 59.9422 68.3962 62.5806 66.9541 64.0227C65.5121 65.4648 62.873 67.9793 61.0927 69.5497C60.6048 69.9803 60.5718 70.7246 61.0155 71.2007L69.009 79.7678C69.4316 80.2209 70.136 80.2638 70.6043 79.8584C72.6047 78.1283 75.251 75.624 76.9029 73.9721C78.5549 72.3201 81.0588 69.6742 82.7892 67.6735C83.1943 67.2049 83.1517 66.5008 82.6986 66.0782L74.1315 58.0847L74.1318 58.0844Z" fill="#798985"/>
<path id="Vector_3" d="M57.6915 21.9121C57.6688 22.5626 57.1192 23.0655 56.4696 23.025C54.0996 22.8765 50.4563 22.7887 48.4166 22.7887C46.3764 22.7887 42.7334 22.8768 40.3636 23.025C39.7141 23.0655 39.1645 22.5626 39.1417 21.9121L38.736 10.2021C38.7145 9.58274 39.1822 9.05462 39.8 9.00978C42.4378 8.81889 46.0799 8.718 48.416 8.718C50.7515 8.718 54.3939 8.81858 57.032 9.00977C57.6498 9.05462 58.1175 9.58274 58.096 10.2021L57.6903 21.9121H57.6915Z" fill="#798985"/>
<path id="Vector_4" d="M21.9121 37.5721C22.5626 37.5949 23.0655 38.1445 23.025 38.794C22.8765 41.1641 22.7887 44.8074 22.7887 46.847C22.7887 48.8873 22.8768 52.5303 23.025 54.9C23.0655 55.5496 22.5626 56.0992 21.9121 56.1219L10.2021 56.5277C9.58274 56.5492 9.05462 56.0815 9.00978 55.4637C8.81889 52.8258 8.718 49.1837 8.718 46.8477C8.718 44.5122 8.81858 40.8698 9.00977 38.2317C9.05462 37.6139 9.58274 37.1461 10.2021 37.1676L21.9121 37.5734V37.5721Z" fill="#798985"/>
<path id="Vector_5" d="M57.6749 71.6675C57.6522 71.017 57.1026 70.5141 56.453 70.5545C54.083 70.7031 50.4397 70.7909 48.4 70.7909C46.3598 70.7909 42.7168 70.7028 40.347 70.5545C39.6975 70.5141 39.1479 71.017 39.1251 71.6675L38.7194 83.3775C38.6979 83.9968 39.1656 84.525 39.7834 84.5698C42.4212 84.7607 46.0633 84.8616 48.3994 84.8616C50.7349 84.8616 54.3773 84.761 57.0154 84.5698C57.6332 84.525 58.1009 83.9968 58.0794 83.3775L57.6737 71.6675H57.6749Z" fill="#798985"/>
<path id="Vector_6" d="M35.837 22.3197C36.281 22.7955 36.2461 23.5379 35.7582 23.9686C33.9773 25.5395 31.3389 28.0534 29.8968 29.4955C28.4544 30.9379 25.9402 33.5767 24.3698 35.3569C23.9392 35.8449 23.1949 35.8779 22.7188 35.4341L14.1517 27.4406C13.6986 27.0181 13.6557 26.3137 14.0611 25.8453C15.7912 23.8449 18.2954 21.1987 19.9474 19.5467C21.5987 17.8954 24.2453 15.3909 26.246 13.6604C26.7146 13.2553 27.4175 13.2967 27.8403 13.7495C29.605 15.6406 34.0063 20.3576 35.837 22.3197Z" fill="#798985"/>
<path id="Vector_7" d="M35.5498 71.1988C35.9939 70.723 35.959 69.9807 35.4711 69.55C33.6902 67.979 31.0517 65.4651 29.6097 64.023C28.1673 62.5807 25.6531 59.9419 24.0827 58.1617C23.6521 57.6737 22.9078 57.6407 22.4317 58.0844L13.8646 66.0779C13.4115 66.5005 13.3685 67.2049 13.774 67.6732C15.5041 69.6736 18.0083 72.3199 19.6603 73.9718C21.3116 75.6231 23.9582 78.1277 25.9589 79.8581C26.4275 80.2632 27.1303 80.2218 27.5532 79.769C29.3179 77.8779 33.7192 73.1609 35.5498 71.1988Z" fill="#798985"/>
</g>
</svg>

<svg xmlns="http://www.w3.org/2000/svg" width="84" height="94" fill="none"><path fill="#043D2F" d="M74.132 35.434a1.15 1.15 0 0 1-1.65-.077c-1.572-1.78-4.086-4.42-5.528-5.861-1.442-1.442-4.081-3.957-5.861-5.527a1.15 1.15 0 0 1-.078-1.651l7.994-8.567a1.15 1.15 0 0 1 1.595-.09c2 1.73 4.647 4.234 6.299 5.886 1.652 1.651 4.156 4.297 5.886 6.298a1.15 1.15 0 0 1-.09 1.595z"/><path fill="#798985" d="M74.132 58.084a1.15 1.15 0 0 0-1.65.077c-1.572 1.781-4.086 4.42-5.528 5.862s-4.081 3.956-5.861 5.527a1.15 1.15 0 0 0-.078 1.65l7.994 8.568a1.15 1.15 0 0 0 1.595.09c2-1.73 4.647-4.234 6.299-5.886s4.156-4.298 5.886-6.298a1.15 1.15 0 0 0-.09-1.596zM57.692 21.912a1.15 1.15 0 0 1-1.222 1.113c-2.37-.148-6.014-.236-8.053-.236s-5.684.088-8.053.236c-.65.04-1.2-.462-1.222-1.113l-.406-11.71A1.15 1.15 0 0 1 39.8 9.01c2.638-.191 6.28-.292 8.616-.292s5.978.1 8.616.292a1.15 1.15 0 0 1 1.064 1.192l-.406 11.71zM21.912 37.572c.65.023 1.154.572 1.113 1.222-.148 2.37-.236 6.013-.236 8.053s.088 5.683.236 8.053c.04.65-.462 1.2-1.113 1.222l-11.71.406a1.15 1.15 0 0 1-1.192-1.064c-.191-2.638-.292-6.28-.292-8.616s.1-5.978.292-8.616a1.15 1.15 0 0 1 1.192-1.064l11.71.405M57.675 71.668a1.15 1.15 0 0 0-1.222-1.114c-2.37.15-6.013.237-8.053.237s-5.683-.088-8.053-.236c-.65-.04-1.2.462-1.222 1.112l-.406 11.71a1.15 1.15 0 0 0 1.064 1.193c2.638.19 6.28.292 8.616.292s5.978-.101 8.616-.292a1.15 1.15 0 0 0 1.064-1.192l-.405-11.71M35.837 22.32c.444.476.41 1.218-.079 1.649-1.78 1.57-4.42 4.084-5.861 5.526-1.443 1.443-3.957 4.082-5.527 5.862a1.15 1.15 0 0 1-1.651.077l-8.567-7.993a1.15 1.15 0 0 1-.09-1.596c1.73-2 4.233-4.646 5.885-6.298s4.298-4.156 6.299-5.887a1.15 1.15 0 0 1 1.594.09zM35.55 71.199a1.15 1.15 0 0 0-.079-1.649c-1.78-1.571-4.42-4.085-5.861-5.527-1.443-1.442-3.957-4.081-5.527-5.861a1.15 1.15 0 0 0-1.651-.078l-8.567 7.994a1.15 1.15 0 0 0-.091 1.595c1.73 2 4.234 4.647 5.886 6.299 1.652 1.651 4.298 4.156 6.299 5.886a1.15 1.15 0 0 0 1.594-.089z"/></svg>
